X: 572
T:Stone in the field (The)
M:6/8
L:1/8
N:Posted to the woodenflute mailing list August 2002
R:Jig
Z:Andrew Pickering
K:G
cec BdB|AGA BGE|DEG AGA|B[Gd]B AGE|
cec BdB|AGA BGE|DEG AGA|BGF G3:|
GBd g3|ede gdB|GBd gdB|AGA AGE|1 GBd g3|ede gdB|
G2 B AGA|BGF G3:|2 g3 f3|edB AGE|G2 B AGA|BGF G3|
<end>
<start>
